img/projector-icons/lamp.svg

<svg width="25" height="24" fill="none" xmlns="http://www.w3.org/2000/svg"><path d="M12.5 19.25c-4 0-7.25-3.25-7.25-7.25S8.5 4.75 12.5 4.75 19.75 8 19.75 12s-3.25 7.25-7.25 7.25zm0-13c-3.17 0-5.75 2.58-5.75 5.75s2.58 5.75 5.75 5.75 5.75-2.58 5.75-5.75-2.58-5.75-5.75-5.75zM12.5 22.96c-.55 0-1-.41-1-.96v-.08c0-.55.45-1 1-1s1 .45 1 1-.45 1.04-1 1.04zm7.14-2.82c-.26 0-.51-.1-.71-.29l-.13-.13a.996.996 0 1 1 1.41-1.41l.13.13a.996.996 0 0 1-.7 1.7zm-14.28 0c-.26 0-.51-.1-.71-.29a.996.996 0 0 1 0-1.41l.13-.13a.996.996 0 1 1 1.41 1.41l-.13.13c-.19.19-.45.29-.7.29zM22.5 13h-.08c-.55 0-1-.45-1-1s.45-1 1-1 1.04.45 1.04 1-.41 1-.96 1zM2.58 13H2.5c-.55 0-1-.45-1-1s.45-1 1-1 1.04.45 1.04 1-.41 1-.96 1zm16.93-7.01c-.26 0-.51-.1-.71-.29a.996.996 0 0 1 0-1.41l.13-.13a.996.996 0 1 1 1.41 1.41l-.13.13c-.19.19-.44.29-.7.29zm-14.02 0c-.26 0-.51-.1-.71-.29l-.13-.14a.996.996 0 1 1 1.41-1.41l.13.13c.39.39.39 1.02 0 1.41-.19.2-.45.3-.7.3zm7.01-2.95c-.55 0-1-.41-1-.96V2c0-.55.45-1 1-1s1 .45 1 1-.45 1.04-1 1.04z" fill="#52525A"/></svg>

<svg width="25" height="24" viewBox="0 0 25 24" fill="none" xmlns="http://www.w3.org/2000/svg">
<path d="M12.5 19.25C8.5 19.25 5.25 16 5.25 12C5.25 8 8.5 4.75 12.5 4.75C16.5 4.75 19.75 8 19.75 12C19.75 16 16.5 19.25 12.5 19.25ZM12.5 6.25C9.33 6.25 6.75 8.83 6.75 12C6.75 15.17 9.33 17.75 12.5 17.75C15.67 17.75 18.25 15.17 18.25 12C18.25 8.83 15.67 6.25 12.5 6.25Z" fill="#52525A"/>
<path d="M12.5 22.96C11.95 22.96 11.5 22.55 11.5 22V21.92C11.5 21.37 11.95 20.92 12.5 20.92C13.05 20.92 13.5 21.37 13.5 21.92C13.5 22.47 13.05 22.96 12.5 22.96ZM19.64 20.14C19.38 20.14 19.13 20.04 18.93 19.85L18.8 19.72C18.41 19.33 18.41 18.7 18.8 18.31C19.19 17.92 19.82 17.92 20.21 18.31L20.34 18.44C20.73 18.83 20.73 19.46 20.34 19.85C20.15 20.04 19.9 20.14 19.64 20.14ZM5.36 20.14C5.1 20.14 4.85 20.04 4.65 19.85C4.26 19.46 4.26 18.83 4.65 18.44L4.78 18.31C5.17 17.92 5.8 17.92 6.19 18.31C6.58 18.7 6.58 19.33 6.19 19.72L6.06 19.85C5.87 20.04 5.61 20.14 5.36 20.14ZM22.5 13H22.42C21.87 13 21.42 12.55 21.42 12C21.42 11.45 21.87 11 22.42 11C22.97 11 23.46 11.45 23.46 12C23.46 12.55 23.05 13 22.5 13ZM2.58 13H2.5C1.95 13 1.5 12.55 1.5 12C1.5 11.45 1.95 11 2.5 11C3.05 11 3.54 11.45 3.54 12C3.54 12.55 3.13 13 2.58 13ZM19.51 5.99C19.25 5.99 19 5.89 18.8 5.7C18.41 5.31 18.41 4.68 18.8 4.29L18.93 4.16C19.32 3.77 19.95 3.77 20.34 4.16C20.73 4.55 20.73 5.18 20.34 5.57L20.21 5.7C20.02 5.89 19.77 5.99 19.51 5.99ZM5.49 5.99C5.23 5.99 4.98 5.89 4.78 5.7L4.65 5.56C4.26 5.17 4.26 4.54 4.65 4.15C5.04 3.76 5.67 3.76 6.06 4.15L6.19 4.28C6.58 4.67 6.58 5.3 6.19 5.69C6 5.89 5.74 5.99 5.49 5.99ZM12.5 3.04C11.95 3.04 11.5 2.63 11.5 2.08V2C11.5 1.45 11.95 1 12.5 1C13.05 1 13.5 1.45 13.5 2C13.5 2.55 13.05 3.04 12.5 3.04Z" fill="#52525A"/>
</svg>
